X:559
T:An Chóisir
T:Toormore Slide, The
S:as played by Gerry Harrington and Eoghan O'Sullivan
N:transcribed by Alan Ng. Compare with setting in Matt Cranitch book
D:_Scéal Eile_, Mulligan LUNCD 059
C:Traditional
R:slide
Z:id:ng-other-9 transcribed by Alan Ng agng@students.wisc.edu Oct. 6, 1999
E:10
M:12/8
K:BMin
F2B BAB d2e f3|e2e efe c2e a3|F2B BAB d2e fff|1e2d cBA B3 B2A:|2e2d cBA B3 d2e::\
fgf e2e ddd c2d|BBB dcB A2F F2E|F2B BAB d2e f3|e2d cBA B3 B3|]*


